X:1
T:Title
%%score [ 1 2 3 4 ]
L:1/8
Q:1/4=120
M:none
K:Ab
V:1 treble nm="S."
V:2 treble nm="A."
V:3 treble-8 nm="T."
V:4 bass nm="B."
V:1
 z16 z16 z2 | z4 z2 F6 A4 B2 c6 c2 c4 c4 | c4 z4 z2 c4 d4 c2 B6 A2 G4 | %3
w: |In ev- 'ry place, in ev- 'ry|place fierce Love a- las as- sails|
 =A4 z8 z4 z2 c2 d4 c2 e4 d2 c2 c4 B2 | (c2 A2) G4 z2 F2 c3 =d e2 (d3 c) (c4 =B2) | %5
w: me, And grief doth so tor- ment, so tor-|ment * me, That how can joy con * tent *|
 c2 A2 G2 c2 A2 d2 c2 (c3 B A2) G6 | A2 G4 G8 z4 z2 c2 A3 A G4 | z8 z2 f2 d3 d c2 c2 B2 G2 | %8
w: me, When hope and faith and all no * * whit|a- vails me? O gen- tle Love,|O gen- tle, gen- tle Love, O|
 A>(Bc=d) e4 !courtesy!=d2 c3 c !courtesy!=d2 =B2 (c4 !courtesy!=B2) | %9
w: gen- tle * * Love, O grant me less to grieve *|
 c4 z8 z2 c2 =B2 B2 c2 G2 A2 F2 | c4 z4 z2 f2 =e2 e2 f2 c2 d3 d c2 c2 c4 =A8 | %11
w: me, Or grieve me more, or grieve me|more, or grieve me more, and grief will soon re- lieve me.|
V:2
 F6 D4 B,2 F4 z2 C4"^In ev'ry place""^(without bars)" (A4 GF=E"^Thomas Morley""^(1557-1602)" F2) !courtesy!=E F2 | %1
w: In ev- 'ry place, in ev * * * * 'ry place|
 D2 C4 z2 C2 D6 D2 C4 C2 (F4 =E=D) !courtesy!=E2 E2 | %2
w: fierce Love, in ev- 'ry place, in ev * * * 'ry|
 F2 F4 A4 E2 F4 F2 F3 F G2 =E2 (F4 !courtesy!=E2) | %3
w: place fierce Love a- las, fierce Love a- las as- sails *|
 F4 z2 F2 !courtesy!_A4 G2 c2 (BA) (A4 G2) A2 A2 G2 F4 =E2 F2 F2 | %4
w: me, And grief doth so tor * ment * me, doth so tor- ment me, tor-|
 (=E2 F2) C4 z2 C2 _E3 F G2 =D2 E4 !courtesy!=D4 | %5
w: ment * me, That how can joy con- tent me,|
 C2 (F4 =E2) F4 z2 F2 !courtesy!=E2 F2 =D2 D2 !courtesy!=E2 | F2 =D4 =E2 G2 _E3 E C8 z2 F2 =E3 E | %7
w: con- tent * me, When hope no whit at all|a- vails me? O gen- tle Love, O gen- tle|
 F2 C2 F3 G =A2 A2 B2 B2 F4 B,4 | C2 A4 G4 E2 A2 A2 G8 | G4 z2 G4 G4 F2 G2 =D2 =E4 F4 | %10
w: Love, O gen- tle, gen- tle Love, O gen- tle|Love, O grant me less to grieve|me, Or grieve me more, or grieve me|
 C4 z2 c2 =B2 B2 c2 G2 A2 F4 G2 =E2 (F4 !courtesy!=E2) F8 | %11
w: more, or grieve me more, and grief will soon re- lieve * me.|
V:3
 z8 z4 F8 A6 B2 c4 F2 | B4 (=AG) A2 _A4 (F4 B4 AG) A4 G4 z2 G2 | %2
w: In ev- 'ry place, in|ev- 'ry * place, in ev * * * 'ry place fierce|
 A2 F2 d2 d2 (c3 BAG F2) B2 c2 d4 c8 | z2 c2 d4 c2 f4 e2 d2 c2 B4 A2 A2 B2 B2 c4 F2 F2 | %4
w: Love a- las as- sails * * * * me, as- sails me,|And grief doth so tor- ment, tor- ment me, doth so tor- ment me, That|
 G2 (AF) G2 G2 A4 G2 (c4 =B2) c4 G2 G2 | A3 B c4 F2 B4 A2 G2 F2 G4 C2 | %6
w: how can * joy con- tent me, con * tent me, When|hope and faith and all no whit a- vails me,|
 c2 (c2 =B2) c8 z2 c2 A3 A F2 F2 c3 c | F2 f2 d3 d c2 c2 B>(cdB) c2 f4 =e2 | %8
w: a- vails * me? O gen- tle Love, O gen- tle|Love, O gen- tle Love, O gen- tle * * Love, gen- tle|
 f2 c4 G=A =B2 c2 f6 e2 =d4 | c2 e2 =d2 d2 e2 !courtesy!=d2 c2 c2 !courtesy!=d2 d2 c2 c2 F2 A2 | %10
w: Love, O grant me less to grieve, to grieve|me, Or grieve me more, or grieve me more, or grieve me more, or|
 G2 G2 A2 E2 F4 G4 F2 A2 B6 A2 G4 F8 | %11
w: grieve me more, and grief will soon, will soon re- lieve me.|
V:4
 z16 z16 z2 | z2 F,8 D,6 B,,2 F,6 F,2 C,6 C,2 | F,6 F,2 A,3 (G,F,E,D,C,) B,,2 =A,,2 B,,2 B,,2 C,8 | %3
w: |In ev- 'ry place, in ev- 'ry|place fierce Love a * * * * las as- sails, as- sails|
 F,,8 z16 z8 z2 C,2 D,4 | C,2 F,4 =E,2 F,4 C,4 z8 z4 | z4 z2 C,2 D,3 E, F,4 C,2 C4 =B,2 C2 | %6
w: me, That how|can joy con- tent me,|When hope and faith and all no whit|
 F,2 G,4 C,4 z2 C2 A,3 A, F,4 z4 z2 C,2 | =A,,3 A,, B,,2 B,,2 F,4 B,,2 B,4 A,2 G,2 G,2 | %8
w: a- vails me? O gen- tle Love, O|gen- tle, gen- tle Love, O gen- tle, gen- tle|
 F,2 F,2 C,>(=D,E,F,) G,2 A,2 F,2 F,2 G,8 | C,2 C2 =B,2 B,2 C2 G,2 A,4 G,4 C,4 z2 F,2 | %10
w: Love, O grant me * * less to grieve, to grieve|me, Or grieve me more, or grieve me more, or|
 =E,2 E,2 F,2 C,2 =D,4 C,4 F,4 B,,4 C,8 F,,8 | %11
w: grieve me more, and grief will soon re- lieve me.|

